svg/color/spo.svg

<svg viewBox="0 0 48 53" fill="none" xmlns="http://www.w3.org/2000/svg">
<g clip-path="url(#clip0_1487_170029)">
<path d="M26.7055 41.7629L24.1231 46.2107L21.5406 41.7629V41.6972L24.1231 37.2494L26.7055 41.6972V41.7629ZM30.6417 41.6972C30.6534 41.0564 30.5042 40.4228 30.2076 39.8537L25.1899 31.2217C24.6013 30.2048 23.6375 30.2048 23.0562 31.2217L18.0385 39.8537C17.7518 40.4212 17.6025 41.0475 17.6025 41.6826C17.6025 42.3176 17.7518 42.9439 18.0385 43.5114L23.0562 52.1509C23.6375 53.1604 24.6013 53.1604 25.1899 52.1509L30.2076 43.5114C30.5042 42.945 30.6534 42.3135 30.6417 41.675V41.6972Z" fill="#CEB575"/>
<path d="M26.7057 11.2374V11.2742L24.1233 15.7145L21.5408 11.2667V11.2081L24.1233 6.76024L26.7057 11.201V11.2374ZM30.6419 11.2374C30.6527 10.5967 30.5035 9.96324 30.2078 9.39385L25.1901 0.761842C24.6015 -0.247682 23.6377 -0.254997 23.0564 0.761842L18.0387 9.39385C17.7532 9.96169 17.6045 10.5879 17.6045 11.2228C17.6045 11.8576 17.7532 12.4838 18.0387 13.0516L23.0564 21.684C23.6377 22.6935 24.6015 22.6935 25.1901 21.684L30.2078 13.0516C30.5035 12.4822 30.6527 11.8488 30.6419 11.2081V11.2374Z" fill="#CEB575"/>
<path d="M41.3171 16.6279L38.7347 21.0757H38.6758H33.5257L36.1081 16.6279H36.167H41.3171ZM47.328 13.7018C47.328 13.0946 46.843 12.6777 46.004 12.6777H35.9757C35.3333 12.7146 34.7086 12.9005 34.1516 13.2206C33.5946 13.5407 33.1206 13.9862 32.7678 14.5212L27.7575 23.1532C27.6038 23.4 27.5176 23.6825 27.5073 23.9726C27.5073 24.5798 27.9856 24.9967 28.8243 24.9967H38.8524C39.4951 24.9615 40.1205 24.7762 40.6778 24.4559C41.2351 24.1356 41.7087 23.6894 42.06 23.1532L47.071 14.5212C47.229 14.2763 47.318 13.993 47.328 13.7018Z" fill="#CEB575"/>
<path d="M14.7498 31.8884L12.1674 36.3363L12.1159 36.3727H6.96567L9.54817 31.9252L9.60697 31.8884H14.7572H14.7498ZM20.7682 28.9623C20.7682 28.3624 20.2826 27.9453 19.4438 27.9453H9.38627C8.74577 27.982 8.12267 28.1673 7.56697 28.4861C7.01127 28.805 6.53827 29.2486 6.18577 29.7817L1.16807 38.4212C1.01437 38.668 0.928169 38.9505 0.917969 39.2406C0.917969 39.8405 1.40347 40.2572 2.23487 40.2572H12.263C12.9048 40.2217 13.5294 40.0371 14.0864 39.7182C14.6435 39.3993 15.1177 38.9552 15.4709 38.4212L20.4886 29.7817C20.6423 29.5349 20.7285 29.2524 20.7388 28.9623H20.7682Z" fill="#CEB575"/>
<path d="M14.7498 21.1057H9.59969H9.54079L6.95839 16.6579H12.1085H12.1674L14.7498 21.1057ZM20.7608 24.0319C20.7496 23.7442 20.6634 23.4642 20.5106 23.2196L15.4856 14.5876C15.1328 14.0526 14.6588 13.6072 14.1018 13.287C13.5448 12.9669 12.9201 12.781 12.2777 12.7441H2.24229C1.41089 12.7441 0.925293 13.1683 0.925293 13.7682C0.935593 14.0583 1.02179 14.3408 1.17539 14.5876L6.19319 23.2196C6.54309 23.7557 7.0153 24.202 7.5715 24.5223C8.1276 24.8427 8.75189 25.028 9.39359 25.0631H19.4218C20.2605 25.0631 20.7461 24.6462 20.7461 24.039L20.7608 24.0319Z" fill="#CEB575"/>
<path d="M41.3171 36.3726H36.167L36.1081 36.3362L33.5257 31.8884H38.6758L38.7347 31.9252L41.3171 36.3726ZM47.328 39.2988C47.318 39.0075 47.229 38.7246 47.071 38.4797L42.06 29.8402C41.707 29.3062 41.2329 28.8618 40.6758 28.5429C40.1187 28.224 39.4942 28.0394 38.8524 28.0039H28.8243C27.9856 28.0039 27.5073 28.4211 27.5073 29.0283C27.5185 29.316 27.6047 29.5957 27.7575 29.8402L32.7678 38.4797C33.121 39.0138 33.5952 39.4578 34.1523 39.7767C34.7094 40.0956 35.3339 40.2802 35.9757 40.3157H46.004C46.843 40.3157 47.328 39.8915 47.328 39.2917V39.2988Z" fill="#CEB575"/>
</g>
<defs>
<clipPath id="clip0_1487_170029">
<rect width="48" height="53" fill="white"/>
</clipPath>
</defs>
</svg>

<svg xmlns="http://www.w3.org/2000/svg" fill="none" viewBox="0 0 48 53"><g fill="#CEB575" clip-path="url(#spo_svg-a)"><path d="m26.706 41.763-2.583 4.448-2.582-4.448v-.066l2.582-4.448 2.582 4.448zm3.936-.066a3.84 3.84 0 0 0-.434-1.843l-5.018-8.632c-.589-1.017-1.553-1.017-2.134 0l-5.018 8.632a4.06 4.06 0 0 0 0 3.657l5.018 8.64c.581 1.01 1.545 1.01 2.134 0l5.018-8.64a3.8 3.8 0 0 0 .434-1.836zm-3.936-30.46v.037l-2.583 4.44-2.582-4.447v-.059l2.582-4.448 2.583 4.441zm3.936 0a3.86 3.86 0 0 0-.434-1.843L25.19.762c-.588-1.01-1.552-1.017-2.134 0L18.04 9.394a4.07 4.07 0 0 0 0 3.658l5.017 8.632c.582 1.01 1.546 1.01 2.134 0l5.018-8.632c.296-.57.445-1.203.434-1.844zm10.675 5.391-2.582 4.448h-5.21l2.583-4.448zm6.011-2.926c0-.607-.485-1.024-1.324-1.024H35.976a4.14 4.14 0 0 0-1.824.543 4.1 4.1 0 0 0-1.384 1.3l-5.01 8.632c-.154.247-.24.53-.25.82 0 .607.478 1.024 1.316 1.024h10.028a4.1 4.1 0 0 0 1.826-.541 4.1 4.1 0 0 0 1.382-1.303l5.011-8.632c.158-.245.247-.528.257-.82M14.75 31.888l-2.583 4.448-.051.037h-5.15l2.582-4.448.059-.037h5.15zm6.018-2.926c0-.6-.485-1.017-1.324-1.017H9.386a4.1 4.1 0 0 0-1.819.541 4.1 4.1 0 0 0-1.381 1.296l-5.018 8.64a1.66 1.66 0 0 0-.25.819c0 .6.485 1.016 1.317 1.016h10.028a4.13 4.13 0 0 0 3.208-1.836l5.018-8.64c.153-.246.24-.529.25-.819zm-6.018-7.856H9.54l-2.582-4.448h5.21zm6.01 2.926a1.66 1.66 0 0 0-.25-.812l-5.024-8.632a4.1 4.1 0 0 0-1.384-1.301 4.14 4.14 0 0 0-1.824-.543H2.242c-.831 0-1.317.424-1.317 1.024.01.29.097.573.25.82l5.018 8.632a4.1 4.1 0 0 0 3.2 1.843h10.029c.838 0 1.324-.417 1.324-1.024zm20.557 12.341h-5.15l-.059-.037-2.582-4.448h5.15l.059.037zm6.011 2.926a1.6 1.6 0 0 0-.257-.82L42.06 29.84a4.1 4.1 0 0 0-1.384-1.297 4.1 4.1 0 0 0-1.824-.54H28.824c-.838 0-1.317.418-1.317 1.025.011.288.098.568.25.812l5.01 8.64a4.13 4.13 0 0 0 3.208 1.836h10.029c.839 0 1.324-.425 1.324-1.024z"/></g><defs><clipPath id="spo_svg-a"><path fill="#fff" d="M0 0h48v53H0z"/></clipPath></defs></svg>
